!!!OTL: If music be the food of love
!!!COM: Purcell, Henry
!!!ODT: 1692
!!!LYR: Heveningham, Henry
!!!OMD: Slow
**kern	**text
*k[b-e-a-d-]	*
*M4/4	*
*met(c)	*
4cc	If
=1	=1
(8dd-L	Mu-
8ccJ)	.
(8b-L	-sic
8a-J)	.
(8gL	be
8a-J)	.
(8b-L	the
8ccJ)	.
=2	=2
(8b-L	food
8a-J)	.
(8gL	of
8fJ)	.
4.en	Love,
8c	sing
=3	=3
4f	on,
4f	sing
4.a-	on,
8f	sing
=4	=4
4cc	on,
4cc	sing
4.ee-	on,
=-	=-
8ff	till
=5	=5
(8ee-L	I
8ccJ)	.
(8b-L	am
8gJ)	.
(8a-L	fill'd,
8e-J)	.
(8fL	am
8a-J)	.
=6	=6
(16a-L/	fill'd
16b-	.
8ccJ)	.
(8b-L	with
8a-J)	.
4.a-	Joy;
8c	For
=7	=7
4a-	then
4e-	my
(8e-L	list'-
8cJ)	.
4e-	-ning
=8	=8
(8e-L	Soul
8a-J)	.
(16a-L/	you
16b-	.
8ccJ)	.
4.b-	move,
=-	=-
8ee-	for
=9	=9
4b-	then
4g	my
(8gL	list'-
8e-J)	.
(16gL	-ning
16an	.
8b-J)	.
=10	=10
(16ccL	Soul
16dd-	.
8ee-J)	.
(8dd-L	you
8ccJ)	.
4.dd-	move
8ee-	to
=11	=11
(8ffL	pleas-
8ccJ)	.
(8dd-L	-ures
8b-J)	.
(8ccL	that
8fJ)	.
4b-	can
=12	=12
(16b-LL/	ne-
16ccJ	.
8dd-J)	.
(8ccL	-ver
8b-J)	.
4.b-	cloy.
=-	=-
8b-	Your
=13	=13
4.g	Eyes,
8cc	your
4.a-	Mien,
8dd-	your
=14	=14
4.b-	Tongue
8ee-	de-
4.cc	-clare
8cc	that
=15	=15
4.dd-	you
8ee-	are
(8ffL	Mu-
8cc	.
8b-	.
8a-J	.
=16	=16
16gLL	.
16a-J	.
8b-J)	.
(8dd-L	-sic
8ccJ)	.
4a-	ev'-
(8gL	-ry-
8fJ)	.
=17	=17
2f	where;
=-	=-
8r	.
8a-	Your
=18	=18
4.g	Eyes,
8cc	your
4.a-	Mien,
8dd-	your
=19	=19
4.b-	Tongue
8ee-	de-
4.cc	-clare
8cc	that
=20	=20
4.dd-	you
8ee-	are
(8ffL	Mu-
8ccJ	.
8b-L	.
8a-J	.
=21	=21
16gLL	.
16a-J	.
8b-J)	.
(8dd-L	-sic
8ccJ)	.
4a-	ev'-
(8gL	-ry-
8fJ)	.
=22	=22
1f	where
==	==
*-	*-
